src/images/icon/icon_exit.svg

<svg height="20" viewBox="0 0 20 20" width="20" xmlns="http://www.w3.org/2000/svg"><g fill="none" fill-rule="evenodd"><path d="m10.7142857 17.1428571h-7.14285713c-.78897821 0-1.42857143-.6395932-1.42857143-1.4285714v-11.42857141c0-.78897822.63959322-1.42857143 1.42857143-1.42857143h7.14285713" stroke="#b6c2cd" stroke-width="1.5"/><path d="m10.5050763 7.64793342 5.5025982 5.50259828c.232455.2324549.6093389.2324549.8417938 0l5.5025983-5.50259828c.2789459-.27894593.2789459-.73120663 0-1.01015255-.1339546-.13395456-.3156359-.20920944-.5050763-.20920944h-10.8368378c-.3944891 0-.7142857.31979661-.7142857.71428571 0 .18944035.0752549.37112172.2092095.50507628z" fill="#36435c" transform="matrix(0 -1 1 0 6.428571 26.428571)"/><path d="m6.428571 10h10.714286" stroke="#36435c" stroke-width="4.285714"/></g></svg>

<?xml version="1.0" encoding="UTF-8"?>
<svg width="20px" height="20px" viewBox="0 0 20 20" version="1.1" xmlns="http://www.w3.org/2000/svg" xmlns:xlink="http://www.w3.org/1999/xlink">
    
    <g id="Dashboard" stroke="none" stroke-width="1" fill="none" fill-rule="evenodd">
        <g id="00-Menu-交互备份" transform="translate(-419.000000, -299.000000)">
            <g id="icon_close" transform="translate(419.000000, 299.000000)">
                <path d="M10.7142857,17.1428571 L3.57142857,17.1428571 C2.78245036,17.1428571 2.14285714,16.5032639 2.14285714,15.7142857 L2.14285714,4.28571429 C2.14285714,3.49673607 2.78245036,2.85714286 3.57142857,2.85714286 L10.7142857,2.85714286" id="路径" stroke="#B6C2CD" stroke-width="1.5"></path>
                <path d="M10.5050763,7.64793342 L16.0076745,13.1505317 C16.2401295,13.3829866 16.6170134,13.3829866 16.8494683,13.1505317 L22.3520666,7.64793342 C22.6310125,7.36898749 22.6310125,6.91672679 22.3520666,6.63778087 C22.218112,6.50382631 22.0364307,6.42857143 21.8469903,6.42857143 L11.0101525,6.42857143 C10.6156634,6.42857143 10.2958668,6.74836804 10.2958668,7.14285714 C10.2958668,7.33229749 10.3711217,7.51397886 10.5050763,7.64793342 Z" id="Path" fill="#36435C" transform="translate(16.428571, 10.000000) rotate(-90.000000) translate(-16.428571, -10.000000) "></path>
                <line x1="6.42857143" y1="10" x2="17.1428571" y2="10" id="路径-3" stroke="#36435C" stroke-width="4.28571429"></line>
            </g>
        </g>
    </g>
</svg>
